Numix-GalliumOS/48/devices/mouse.svg

<?xml version="1.0" encoding="UTF-8" standalone="no"?>
<svg
   xmlns:dc="http://purl.org/dc/elements/1.1/"
   xmlns:cc="http://creativecommons.org/ns#"
   xmlns:rdf="http://www.w3.org/1999/02/22-rdf-syntax-ns#"
   xmlns:svg="http://www.w3.org/2000/svg"
   xmlns="http://www.w3.org/2000/svg"
   xmlns:sodipodi="http://sodipodi.sourceforge.net/DTD/sodipodi-0.dtd"
   xmlns:inkscape="http://www.inkscape.org/namespaces/inkscape"
   viewBox="0 0 48 48"
   id="svg2"
   version="1.1"
   inkscape:version="0.91 r"
   width="100%"
   height="100%"
   sodipodi:docname="yast-mouse.svg">
  <metadata
     id="metadata12">
    <rdf:RDF>
      <cc:Work
         rdf:about="">
        <dc:format>image/svg+xml</dc:format>
        <dc:type
           rdf:resource="http://purl.org/dc/dcmitype/StillImage" />
        <dc:title />
      </cc:Work>
    </rdf:RDF>
  </metadata>
  <defs
     id="defs10" />
  <sodipodi:namedview
     pagecolor="#ffffff"
     bordercolor="#666666"
     borderopacity="1"
     objecttolerance="10"
     gridtolerance="10"
     guidetolerance="10"
     inkscape:pageopacity="0"
     inkscape:pageshadow="2"
     inkscape:window-width="1366"
     inkscape:window-height="704"
     id="namedview8"
     showgrid="true"
     inkscape:zoom="9.8333333"
     inkscape:cx="18.958461"
     inkscape:cy="23.103754"
     inkscape:window-x="0"
     inkscape:window-y="27"
     inkscape:window-maximized="1"
     inkscape:current-layer="svg2">
    <inkscape:grid
       type="xygrid"
       id="grid2989" />
  </sodipodi:namedview>
  <rect
     style="fill:#586e75;fill-opacity:1;stroke:none"
     id="rect3759"
     width="18.271187"
     height="30.372881"
     x="15.016949"
     y="9.1186438"
     ry="9.4915257" />
  <g
     transform="translate(0 -1004.3622)"
     id="g4"
     style="fill:#839496;fill-opacity:1">
    <path
       style="fill:#839496;line-height:normal;color:#000;fill-opacity:1"
       d="m 23,1012.3622 0,15 -8.999999,0 0,-5.7084 c 0,-4.8125 4.078625,-8.685 8.999999,-9.2916 z m 2,0 c 4.836622,0.6754 9,4.5351 9,9.2916 l 0,5.7084 -9.000001,0 z m -11,17 19.999999,0 10e-7,5.5833 c 10e-7,5.2399 -4.435508,9.4167 -9.999999,9.4167 C 18.435509,1044.3622 14,1040.1854 14,1034.9455 z"
       id="path6" />
  </g>
  <path
     style="opacity:0.24567474;fill:#fdf6e3;fill-opacity:1;stroke:none"
     d="M 30 10 L 30 23 L 32 23 L 32 11.875 C 31.429653 11.175312 30.749043 10.539259 30 10 z M 30 25 L 30 38.125 C 30.759898 37.590396 31.431296 36.96483 32 36.25 L 32 25 L 30 25 z "
     id="rect3761" />
</svg>

<svg xmlns="http://www.w3.org/2000/svg" viewBox="0 0 48 48">
 <rect width="18.271" height="30.373" x="15.02" y="9.119" ry="9.492" rx="9.136" style="fill:#586e75;fill-opacity:1;stroke:none"/>
 <g transform="translate(0 -1004.3622)" style="fill:#839496;fill-opacity:1">
  <path d="m 23 1012.36 0 15 -9 0 0 -5.708 c 0 -4.813 4.079 -8.685 9 -9.292 z m 2 0 c 4.837 0.675 9 4.535 9 9.292 l 0 5.708 -9 0 z m -11 17 20 0 0 5.583 c 0 5.24 -4.436 9.417 -10 9.417 c -5.564 0 -10 -4.177 -10 -9.417 z" style="color:#000"/>
 </g>
 <path d="m 30 10 l 0 13 l 2 0 l 0 -11.125 c -0.57 -0.7 -1.251 -1.336 -2 -1.875 z m 0 15 l 0 13.13 c 0.76 -0.535 1.431 -1.16 2 -1.875 l 0 -11.25 l -2 0 z" style="fill:#fdf6e3;opacity:0.246;fill-opacity:1;stroke:none"/>
</svg>
